src/img/logo.svg

<svg width="492" height="100" viewBox="0 0 492 100" fill="none" xmlns="http://www.w3.org/2000/svg">
<g clip-path="url(#clip0)">
<path d="M66.11 22.08C66.11 14.3733 64.83 9.2 62.27 6.56C59.71 3.92 54.9267 2.58667 47.92 2.56H44V70.13H53.09V72.73H15.46V70.13H24.55V2.6H20.65C13.7233 2.6 8.98333 3.93333 6.43 6.6C3.87667 9.26667 2.6 14.4267 2.6 22.08H0V0H68.7V22.08H66.11Z" fill="black"/>
<path d="M123.9 46.75H84.6899C85.5633 61.99 91.4933 69.61 102.48 69.61C105.929 69.511 109.334 68.8069 112.54 67.53C115.833 66.4931 118.718 64.4508 120.79 61.69L122.61 62.99C120.703 66.19 117.457 68.83 112.87 70.91C108.578 72.911 103.905 73.9649 99.1699 74C95.036 74.0458 90.9121 73.5857 86.8899 72.63C83.1195 71.6631 79.5253 70.1073 76.2399 68.02C72.6147 65.6672 69.7872 62.2714 68.1299 58.28C66.0572 53.3188 65.0586 47.9749 65.1999 42.6C65.1999 32.12 68.1033 24.35 73.9099 19.29C79.7427 14.2094 87.2671 11.4979 94.9999 11.69C103.267 11.69 110.15 14.46 115.65 20C121.15 25.54 123.9 34.4566 123.9 46.75ZM84.5499 44.16H105.72C105.836 37.1071 104.985 30.0715 103.19 23.25C101.503 17.25 98.7999 14.25 95.0799 14.25C91.3599 14.25 88.6666 17.14 86.9999 22.92C85.2665 29.3777 84.4353 36.0443 84.5299 42.73L84.5499 44.16Z" fill="black"/>
<path d="M232.49 70.13H239V72.73H206.51V70.13H213V33.77C213 27.6166 212.093 23.2433 210.28 20.65C208.467 18.0566 205.74 16.7566 202.1 16.75C199.816 16.8067 197.582 17.4323 195.6 18.57C193.345 19.7747 191.422 21.5159 190 23.64C191.04 26.7466 191.56 31.08 191.56 36.64V70.13H198.05V72.73H164.3V70.13H172.1V33.77C172.1 27.6166 171.19 23.2433 169.37 20.65C167.55 18.0566 164.823 16.7566 161.19 16.75C156.25 16.75 152.31 19.35 149.37 24.55V70.13H155.86V72.73H123.4V70.13H129.89V15.58H123.4V13H149.4V19.75C151.437 17.2113 154.087 15.2325 157.1 14C160.668 12.3856 164.544 11.5667 168.46 11.6C178.76 11.6 185.47 14.5 188.59 20.3C190.993 17.4252 194.091 15.2119 197.59 13.87C201.345 12.3516 205.36 11.5805 209.41 11.6C224.823 11.6 232.53 19.9533 232.53 36.66L232.49 70.13Z" fill="black"/>
<path d="M322.72 19C325.66 13.98 330.94 11.47 338.56 11.47C342.154 11.3966 345.722 12.1013 349.019 13.5356C352.316 14.9699 355.263 17.1001 357.66 19.78C362.76 25.32 365.313 33.1567 365.32 43.29C365.327 53.4234 362.813 61.3267 357.78 67C352.76 72.72 346.657 75.5767 339.47 75.57C336.014 75.592 332.597 74.8403 329.47 73.37C326.498 72.0407 324.102 69.6877 322.72 66.74V97.4H329.21V100H303.21V15.58H296.72V13H322.72V19ZM322.72 41.47V62.86C325.06 67.5267 328.113 69.86 331.88 69.86C335.647 69.86 338.87 67.6967 341.55 63.37C344.217 59.0367 345.55 52.0867 345.55 42.52C345.55 32.9534 344.52 26.2467 342.46 22.4C341.614 20.6223 340.27 19.1292 338.59 18.1028C336.91 17.0764 334.968 16.5612 333 16.62C328.76 16.62 325.99 18.3534 324.69 21.82C323.39 25.2867 322.733 31.8234 322.72 41.43V41.47Z" fill="black"/>
<path d="M411.72 72.73V65.84C409.719 68.4624 407.054 70.5027 404 71.75C400.432 73.3644 396.556 74.1833 392.64 74.15C377.233 74.15 369.527 65.7967 369.52 49.09V15.58H363V13H389V52C389 58.1467 389.91 62.52 391.73 65.12C393.55 67.72 396.273 69.0133 399.9 69C404.753 69 408.693 66.4033 411.72 61.21V15.58H405.23V13H431.23V70.13H437.72V72.73H411.72Z" fill="black"/>
<path d="M466 71.69C475 71.69 479.5 69.2233 479.5 64.29C479.5 61.52 477.94 59.24 474.82 57.47C471.269 55.5192 467.472 54.056 463.53 53.1199C459.11 51.9933 454.757 50.6933 450.47 49.22C446.367 47.8684 442.695 45.453 439.83 42.22C437.01 39.02 435.83 34.81 436.38 29.62C436.93 24.43 439.57 20.14 444.38 16.76C449.19 13.38 455.12 11.7 462.17 11.7C469.22 11.7 474.92 12.82 479.25 15.08C483.58 17.34 486 20.36 486.52 24.17C486.887 26.3954 486.5 28.6796 485.42 30.66C484.911 31.6231 484.143 32.4253 483.204 32.9764C482.264 33.5276 481.189 33.8058 480.1 33.7799C477.881 33.9304 475.691 33.2133 473.99 31.78C473.263 31.2182 472.679 30.4922 472.286 29.6614C471.893 28.8306 471.703 27.9185 471.73 27C471.819 25.1802 472.557 23.4524 473.81 22.13C475.11 20.7 475.76 19.56 475.76 18.69C475.76 17.2233 474.35 16.12 471.53 15.38C468.343 14.6044 465.07 14.2348 461.79 14.28C458.607 14.1463 455.462 15.006 452.79 16.74C451.736 17.378 450.86 18.2733 450.247 19.342C449.633 20.4106 449.3 21.6177 449.28 22.85C449.28 25.27 450.73 27.3466 453.63 29.08C456.944 30.9785 460.509 32.3992 464.22 33.2999C468.373 34.3799 472.507 35.5933 476.62 36.9399C480.597 38.1961 484.208 40.4032 487.14 43.3699C488.582 44.8418 489.71 46.5902 490.458 48.5099C491.205 50.4297 491.556 52.4809 491.49 54.54C491.49 60.54 489.37 65.3233 485.13 68.8899C480.89 72.4566 474.48 74.2533 465.9 74.2799C457.327 74.2799 450.38 72.9799 445.06 70.3799C439.74 67.7799 436.817 64.4466 436.29 60.38C435.935 58.1466 436.347 55.8588 437.46 53.8899C437.982 52.9356 438.754 52.1411 439.693 51.5915C440.632 51.0419 441.702 50.7579 442.79 50.77C444.967 50.621 447.117 51.3197 448.79 52.72C449.521 53.2832 450.109 54.012 450.503 54.8465C450.898 55.681 451.089 56.5973 451.06 57.52C450.979 59.3406 450.248 61.072 449 62.4C447.7 63.83 447.05 64.9799 447.05 65.8399C447.05 67.5799 449.05 68.9799 453.05 70.07C457.277 71.1759 461.631 71.7206 466 71.69Z" fill="black"/>
<path d="M268.05 74.1C261.857 74.1 255.804 72.2637 250.655 68.8233C245.506 65.3829 241.493 60.493 239.123 54.7718C236.754 49.0507 236.134 42.7553 237.342 36.6817C238.55 30.6082 241.532 25.0293 245.91 20.6505C250.289 16.2717 255.868 13.2897 261.942 12.0816C268.015 10.8735 274.311 11.4935 280.032 13.8633C285.753 16.2331 290.643 20.2462 294.083 25.3951C297.524 30.544 299.36 36.5975 299.36 42.79C299.352 51.0915 296.051 59.0507 290.181 64.9207C284.311 70.7908 276.351 74.0921 268.05 74.1ZM268.05 21.48C263.833 21.48 259.71 22.7306 256.204 25.0738C252.698 27.4169 249.965 30.7472 248.352 34.6435C246.739 38.5398 246.317 42.8271 247.14 46.963C247.964 51.0989 249.995 54.8978 252.978 57.879C255.961 60.8603 259.76 62.89 263.897 63.7116C268.033 64.5331 272.32 64.1094 276.216 62.4942C280.111 60.879 283.44 58.1448 285.782 54.6375C288.123 51.1301 289.372 47.0071 289.37 42.79C289.365 37.1381 287.116 31.7194 283.119 27.7239C279.122 23.7283 273.702 21.4826 268.05 21.48Z" fill="black"/>
<path d="M270.5 28.22H265.5V47.75H270.5V28.22Z" fill="black"/>
<path d="M276.69 42.75H265.51V47.75H276.69V42.75Z" fill="black"/>
</g>
<defs>
<clipPath id="clip0">
<rect width="491.47" height="100" fill="white"/>
</clipPath>
</defs>
</svg>

<svg xmlns="http://www.w3.org/2000/svg" viewBox="0 0 491.47 100"><defs><style>.cls-1{fill:#e4c99c;}</style></defs><title>Asset 5</title><g id="Layer_2" data-name="Layer 2"><g id="rough"><g id="Logo"><path d="M66.11,22.08q0-11.56-3.84-15.52t-14.35-4H44V70.13h9.09v2.6H15.46v-2.6h9.09V2.6h-3.9q-10.39,0-14.22,4T2.6,22.08H0V0H68.7V22.08Z"/><path d="M123.9,46.75H84.69Q86,69.61,102.48,69.61a29.47,29.47,0,0,0,10.06-2.08,16.52,16.52,0,0,0,8.25-5.84l1.82,1.3q-2.86,4.8-9.74,7.92A33,33,0,0,1,99.17,74a50.69,50.69,0,0,1-12.28-1.37,37,37,0,0,1-10.65-4.61,21.39,21.39,0,0,1-8.11-9.74A38.08,38.08,0,0,1,65.2,42.6q0-15.72,8.71-23.31A30.94,30.94,0,0,1,95,11.69q12.4,0,20.65,8.31T123.9,46.75ZM84.55,44.16h21.17a77.15,77.15,0,0,0-2.53-20.91q-2.53-9-8.11-9T87,22.92a72.46,72.46,0,0,0-2.47,19.81Z"/><path d="M232.49,70.13H239v2.6H206.51v-2.6H213V33.77q0-9.23-2.72-13.12t-8.18-3.9a13.74,13.74,0,0,0-6.5,1.82A15.57,15.57,0,0,0,190,23.64q1.56,4.66,1.56,13V70.13h6.49v2.6H164.3v-2.6h7.8V33.77q0-9.23-2.73-13.12t-8.18-3.9q-7.41,0-11.82,7.8V70.13h6.49v2.6H123.4v-2.6h6.49V15.58H123.4V13h26v6.75A19.19,19.19,0,0,1,157.1,14a27,27,0,0,1,11.36-2.4q15.45,0,20.13,8.7a22,22,0,0,1,9-6.43,31.13,31.13,0,0,1,11.82-2.27q23.12,0,23.12,25.06Z"/><path d="M322.72,19q4.41-7.53,15.84-7.53a24.94,24.94,0,0,1,19.1,8.31q7.65,8.31,7.66,23.51T357.78,67q-7.53,8.58-18.31,8.57a23.16,23.16,0,0,1-10-2.2,13.58,13.58,0,0,1-6.75-6.63V97.4h6.49V100h-26V15.58h-6.49V13h26Zm0,22.47V62.86q3.51,7,9.16,7t9.67-6.49q4-6.5,4-20.85T342.46,22.4A10.14,10.14,0,0,0,333,16.62q-6.36,0-8.31,5.2T322.72,41.43Z"/><path d="M411.72,72.73V65.84A18.52,18.52,0,0,1,404,71.75a27,27,0,0,1-11.36,2.4q-23.11,0-23.12-25.06V15.58H363V13h26V52q0,9.22,2.73,13.12T399.9,69q7.28,0,11.82-7.79V15.58h-6.49V13h26V70.13h6.49v2.6Z"/><path d="M466,71.69q13.5,0,13.5-7.4c0-2.77-1.56-5.05-4.68-6.82a45.08,45.08,0,0,0-11.29-4.35q-6.63-1.69-13.06-3.9a24.43,24.43,0,0,1-10.64-7c-2.82-3.2-4-7.41-3.45-12.6s3.19-9.48,8-12.86,10.74-5.06,17.79-5.06,12.75,1.12,17.08,3.38,6.75,5.28,7.27,9.09a10.12,10.12,0,0,1-1.1,6.49,5.86,5.86,0,0,1-5.32,3.12,8.58,8.58,0,0,1-6.11-2A5.82,5.82,0,0,1,471.73,27a7.62,7.62,0,0,1,2.08-4.87c1.3-1.43,1.95-2.57,1.95-3.44q0-2.2-4.23-3.31a38.93,38.93,0,0,0-9.74-1.1,15.35,15.35,0,0,0-9,2.46,7.28,7.28,0,0,0-3.51,6.11q0,3.63,4.35,6.23a40.53,40.53,0,0,0,10.59,4.22q6.23,1.62,12.4,3.64a25.65,25.65,0,0,1,10.52,6.43,15.26,15.26,0,0,1,4.35,11.17q0,9-6.36,14.35t-19.23,5.39q-12.86,0-20.84-3.9t-8.77-10a10,10,0,0,1,1.17-6.49,6,6,0,0,1,5.33-3.12,8.45,8.45,0,0,1,6,1.95,5.83,5.83,0,0,1,2.27,4.8A7.62,7.62,0,0,1,449,62.4c-1.3,1.43-1.95,2.58-1.95,3.44,0,1.74,2,3.14,6,4.23A49.78,49.78,0,0,0,466,71.69Z"/><path class="cls-1" d="M268.05,74.1a31.31,31.31,0,1,1,31.31-31.31A31.34,31.34,0,0,1,268.05,74.1Zm0-52.62a21.32,21.32,0,1,0,21.32,21.31A21.33,21.33,0,0,0,268.05,21.48Z"/><rect class="cls-1" x="265.5" y="28.22" width="5" height="19.53"/><rect class="cls-1" x="265.51" y="42.75" width="11.18" height="5"/></g></g></g></svg>
